X:58
T:Orchestral Suite No.3 In D Major
C:J. S. Bach
N:
L:1/8
Q:1/4=69
M:4/4
K:D
d/A/F/A/ D/F/E/G/ F/A/d/F/ E/d/E/c/ | d/A/d/e/ f/a/^g/b/ a/e/c/a/ B/a/B/g/ | a/e/c/d/ e/f/e/f/ g/e/A/B/ c/d/c/d/ | 
e/d/c/d/ e/d/c/B/ ^A/e/f/g/ f/e/d/c/ | d/f/d/c/ d/e/d/e/ f/a/^d/e/ f/g/f/g/ | 
a/=c/B/c/ a/c/b/A/ B/^c/^d/e/ f/g/a/f/ | g/e/B/d/ c/e/A/g/ f/g/A/=c/ B/d/G/g/ | 
e/c/^G/B/ ^A/c/F/e/ d/B/c/d/ e/f/g/f/ | d8 | z8 | z8 | z8 | z8 | z8 | z8 | z8 | 
z8 | z8 | z8 | 
 

